icons/person-add-24.svg

<svg xmlns="http://www.w3.org/2000/svg" width="24" height="24" viewBox="0 0 24 24"><path d="M4 9.5a5 5 0 117.916 4.062 7.973 7.973 0 015.018 7.166.75.75 0 11-1.499.044 6.469 6.469 0 00-12.932 0 .75.75 0 01-1.499-.044 7.972 7.972 0 015.059-7.181A4.994 4.994 0 014 9.5zM9 6a3.5 3.5 0 100 7 3.5 3.5 0 000-7zm10.25-5a.75.75 0 01.75.75V4h2.25a.75.75 0 010 1.5H20v2.25a.75.75 0 01-1.5 0V5.5h-2.25a.75.75 0 010-1.5h2.25V1.75a.75.75 0 01.75-.75z"/></svg>

<svg xmlns="http://www.w3.org/2000/svg" width="24" height="24" viewBox="0 0 24 24">
  <defs/>
  <path d="M4,9.5 C4,7.136 5.656,5.095 7.97,4.608 C10.283,4.121 12.622,5.321 13.575,7.484 C14.529,9.648 13.837,12.183 11.916,13.562 C14.867,14.738 16.838,17.553 16.934,20.728 C16.948,20.999 16.814,21.257 16.583,21.402 C16.353,21.546 16.063,21.555 15.824,21.424 C15.586,21.293 15.437,21.044 15.435,20.772 C15.329,17.278 12.465,14.5 8.969,14.5 C5.473,14.5 2.609,17.278 2.503,20.772 C2.482,21.179 2.14,21.495 1.732,21.483 C1.324,21.471 1.001,21.136 1.004,20.728 C1.101,17.537 3.091,14.712 6.063,13.547 C4.766,12.607 3.999,11.102 4,9.5 Z M9,6 C7.067,6 5.5,7.567 5.5,9.5 C5.5,11.433 7.067,13 9,13 C10.933,13 12.5,11.433 12.5,9.5 C12.5,7.567 10.933,6 9,6 Z M19.25,1 C19.664,1 20,1.336 20,1.75 L20,4 L22.25,4 C22.664,4 23,4.336 23,4.75 C23,5.164 22.664,5.5 22.25,5.5 L20,5.5 L20,7.75 C20,8.164 19.664,8.5 19.25,8.5 C18.836,8.5 18.5,8.164 18.5,7.75 L18.5,5.5 L16.25,5.5 C15.836,5.5 15.5,5.164 15.5,4.75 C15.5,4.336 15.836,4 16.25,4 L18.5,4 L18.5,1.75 C18.5,1.336 18.836,1 19.25,1 Z"/>
</svg>
